packages/foundations/assets/icons/functional/images/notification/cross_circle.svg

<svg xmlns="http://www.w3.org/2000/svg" width="32" height="32" fill="none"><path fill="#1A1C1F" fill-rule="evenodd" d="M14.72 2.06c-1.337.16-2.192.345-3.214.694a14.01 14.01 0 0 0-9.108 9.958 13.97 13.97 0 0 0 2.111 11.263c1.513 2.162 3.665 3.918 6.004 4.898 1.813.759 3.549 1.111 5.487 1.111 2.014 0 3.907-.403 5.746-1.224 3.133-1.398 5.81-4.13 7.127-7.273.76-1.814 1.111-3.55 1.11-5.487-.001-2.779-.782-5.401-2.282-7.665a14.06 14.06 0 0 0-9.621-6.178c-.537-.084-2.898-.153-3.36-.097m3.04 2.074c3.883.583 7.274 3.057 8.983 6.553.876 1.792 1.226 3.309 1.226 5.313 0 .777-.027 1.271-.094 1.707-.534 3.477-2.441 6.452-5.368 8.372-1.079.708-2.675 1.372-3.963 1.65-5.37 1.157-10.888-1.508-13.287-6.416a11.8 11.8 0 0 1-1.133-3.606c-.128-.844-.128-2.57 0-3.414.603-3.954 3.045-7.317 6.563-9.036 1.438-.703 2.776-1.075 4.406-1.224.474-.044 2.118.019 2.667.101m-7.28 6.015c-.394.223-.601.876-.402 1.267.037.072 1.066 1.133 2.287 2.357L14.586 16l-2.249 2.253c-2.483 2.488-2.429 2.418-2.309 2.951.073.33.223.532.496.671.252.129.686.152.892.047.072-.037 1.133-1.066 2.357-2.287L16 17.414l2.257 2.256c2.493 2.493 2.405 2.424 2.951 2.302.572-.129.876-.616.754-1.21-.05-.245-.147-.35-2.3-2.509L17.415 16l2.249-2.253c1.668-1.671 2.258-2.295 2.284-2.414.019-.088.044-.191.056-.229.037-.12-.083-.552-.197-.713-.162-.228-.471-.364-.822-.364-.164 0-.351.026-.415.059-.064.032-1.119 1.058-2.343 2.279L16 14.586l-2.227-2.221c-1.224-1.221-2.279-2.247-2.343-2.279-.206-.105-.713-.071-.95.063"/></svg>

<svg width="32" height="32" viewBox="0 0 32 32" fill="none" xmlns="http://www.w3.org/2000/svg"><path d="M14.720 2.060 C 13.383 2.220,12.528 2.405,11.506 2.754 C 6.954 4.310,3.537 8.045,2.398 12.712 C 1.455 16.573,2.232 20.722,4.509 23.975 C 6.022 26.137,8.174 27.893,10.513 28.873 C 12.326 29.632,14.062 29.984,16.000 29.984 C 18.014 29.984,19.907 29.581,21.746 28.760 C 24.879 27.362,27.556 24.630,28.873 21.487 C 29.633 19.673,29.984 17.937,29.983 16.000 C 29.982 13.221,29.201 10.599,27.701 8.335 C 25.479 4.983,22.049 2.781,18.080 2.157 C 17.543 2.073,15.182 2.004,14.720 2.060 M17.760 4.134 C 21.643 4.717,25.034 7.191,26.743 10.687 C 27.619 12.479,27.969 13.996,27.969 16.000 C 27.969 16.777,27.942 17.271,27.875 17.707 C 27.341 21.184,25.434 24.159,22.507 26.079 C 21.428 26.787,19.832 27.451,18.544 27.729 C 13.174 28.886,7.656 26.221,5.257 21.313 C 4.662 20.096,4.325 19.021,4.124 17.707 C 3.996 16.863,3.996 15.137,4.124 14.293 C 4.727 10.339,7.169 6.976,10.687 5.257 C 12.125 4.554,13.463 4.182,15.093 4.033 C 15.567 3.989,17.211 4.052,17.760 4.134 M10.480 10.149 C 10.086 10.372,9.879 11.025,10.078 11.416 C 10.115 11.488,11.144 12.549,12.365 13.773 L 14.586 16.000 12.337 18.253 C 9.854 20.741,9.908 20.671,10.028 21.204 C 10.101 21.534,10.251 21.736,10.524 21.875 C 10.776 22.004,11.210 22.027,11.416 21.922 C 11.488 21.885,12.549 20.856,13.773 19.635 L 16.000 17.414 18.257 19.670 C 20.750 22.163,20.662 22.094,21.208 21.972 C 21.780 21.843,22.084 21.356,21.962 20.762 C 21.912 20.517,21.815 20.412,19.662 18.253 L 17.415 16.000 19.664 13.747 C 21.332 12.076,21.922 11.452,21.948 11.333 C 21.967 11.245,21.992 11.142,22.004 11.104 C 22.041 10.984,21.921 10.552,21.807 10.391 C 21.645 10.163,21.336 10.027,20.985 10.027 C 20.821 10.027,20.634 10.053,20.570 10.086 C 20.506 10.118,19.451 11.144,18.227 12.365 L 16.000 14.586 13.773 12.365 C 12.549 11.144,11.494 10.118,11.430 10.086 C 11.224 9.981,10.717 10.015,10.480 10.149 " fill="#1A1C1F" stroke="none" fill-rule="evenodd"></path></svg>
